X: 122
T: Botany Bay
M:4/4
R:song
L:1/8
Z:added by Alf warnock alf0@rogers.com - www.alfwarnock.info/alfs
K:C
A2|"Am"A2ee e2d2|c2A4a2|a2a2 a2g2|e6A2|
A2e2 e2d2|c2B2 A2c2|"G"d2d2 d2e2|d6A2|
"Am"A2e2 e2d2|c2A4e2|a2a2 g2e2|"G"d6d2|
"Am"e2A2 A2cd|e2A2 A2c2|"C"e8-|"G"e2d2 dcB2|"Am"A8||

